X: 1879
T: Tâ Kim Hattın Ey Mah-ı Cebînim
C: Seyyid Nûh
O: Turkey
F: http://compmusic.upf.edu/node/140
N: nuhuft--murabba--darbifetih--ta_kim_hattin--seyyid_nuh
N: makam= nuhuft
N: form= murabba
N: usul= darbifetih = 88/4
M: 88/4
L: 1/16
K: C _1/4B ^f  
Q: 1/4=66
%%MIDI tuningsystem comma53
d8 d2 e4 ed  | d6 z2 e2 {f}ed dc {d}cB  | \
w:  Tâ   |  kim  tâ  *  *  kim   | 
c4 g4 f3d e2 {f}ed  | 
w:  hat tın  ey   | 
e3/2d/ ^cd cd ed d8  | z2 d4 e2 f2 {g}fe f2 g2  | \
w:  mâ   |  mâh_ *  *  *  *  *  ı  ce  | 
f3e f2 ga ag fe d2 cB  | 
w:  bî *  *  *  *  nim    | 
c3B g2 gf zf2d e=f ed  | e3/2d/ ^cd cd ed d8  | 
w:  Ah  *  yü ze  *  çık  |  tı   | 
z2 e2 d2 e=f e2 fg e2 d2  | d3c d2 e=f e3/2d/ cd/e/ dc {d}cB  | 
w:  hey   |  ca *  *  *  *  nım   | 
c3B d2 d{e}c zc2B B/A/B/c/ BA  | A8 z2 A4 A2  | \
w:  ah  *  yü ze  *  *  çık   |  ah   Be li   | 
B2 {d}c2 B2 A2 B2 c2 B2 z2  | 
w:  be *  *  *  li  be *  li   | 
d3B d4 d6 z2  | d4 d3e f2 ed g3f  | f3e e3d f2 ed d3z  | 
w:  yel  le  lel  li   |  câ nım  ye  lel  *  *  lel   |  lel  *  lel  *  lel    | 
A4 A2 {e}dc cB BA AG GF  | F2 EF E2 F2 AG FE D3z  | 
w:  Yâ  lâ  *  *  *  ye  *  le  *  lâ   |  *  li   | 
c2 {e}d2 c2 B2 c2 d6  | z2 cd c2 d2 e2 d2 c2 B2  | \
w:  yâr  *  *  *  *  yâr   |  dost  *  *  *  dost   | 
A2 {B}AG F2 G2 F2 {G}FE E4  | 
w:  *  *  *  *  be li  şah_ *  *  *  ı   | 
D2 E6 e=f ed d4  | d8 d2 e4 ed  | d6 z2 e2 {f}ed dc {d}cB  | 
w:  men   *  SAZ  |  Tâ   |  kim  tâ  *  *  kim   | 
c4 g4 f3d e2 {f}ed  | e3/2d/ ^cd cd ed d8  | \
w:  hat tın  ey   |  mâ   | 
z2 d4 e2 f2 {g}fe f2 g2  | 
w:  mâh_ *  *  *  *  *  ı  ce  | 
f3e f2 ga ag fe d2 cB  | c3B g2 gf zf2d e=f ed  | 
w:  bî *  *  *  *  nim    |  Ah  *  yü ze  *  çık  | 
e3/2d/ ^cd cd ed d8  | z2 e2 d2 e=f e2 fg e2 d2  | \
w:  tı   |  hey   | 
d3c d2 e=f e3/2d/ cd/e/ dc {d}cB  | 
w:  ca *  *  *  *  nım   | 
c3B d2 d{e}c zc2B B/A/B/c/ BA  | A8 z2 A4 A2  | \
w:  ah  *  yü ze  *  *  çık   |  ah   Be li   | 
B2 {d}c2 B2 A2 B2 c2 B2 z2  | 
w:  be *  *  *  li  be *  li   | 
d3B d4 d6 z2  | d4 d3e f2 ed g3f  | f3e e3d f2 ed d3z  | 
w:  yel  le  lel  li   |  câ nım  ye  lel  *  *  lel   |  lel  *  lel  *  lel    | 
A4 A2 {e}dc cB BA AG GF  | F2 EF E2 F2 AG FE D3z  | 
w:  Yâ  lâ  *  *  *  ye  *  le  *  lâ   |  *  li   | 
c2 {e}d2 c2 B2 c2 d6  | z2 cd c2 d2 e2 d2 c2 B2  | \
w:  yâr  *  *  *  *  yâr   |  dost  *  *  *  dost   | 
A2 {B}AG F2 G2 F2 {G}FE E4  | 
w:  *  *  *  *  be li  şah_ *  *  *  ı   | 
D2 E6 g3/2f/ ef f4  | f8 f2 {g}f^e d2 e2  | \
w:  men   *  SAZ  |  Rûh  | 
f6 z2 f2 {g}f^e f2 {g}fe  | 
w:  sâ  rûh *  *  *  sâ  | 
f2 {g}f^e f2 ag gf fd =e=f ed  | e3/2d/ ^cd cd ed d8  | 
w:  *  *  *  *  rı na  *  hat   |  gel   | 
z2 g2 a4 a/g/a/b/ ag f2 f2  | fg fe d2 e2 f3/2e/ fg fg fe  | 
w:  gel *  *  *  *  *  *  *  di  de  |  yû  *  *  *  *  *  a   | 
fg fe f2 ag gf fd e=f ed  | e3/2d/ ^cd cd ed d8  | 
w:  ağ *  *  *  la mam  *  am  |  ma    | 
z2 e2 d2 e=f e2 fg e2 d2  | d3c d2 e=f e3/2d/ cd/e/ dc cB  | 
w:  Hey   |  câ *  *  *  *  nım   | 
c3B g2 {a}gf zf2d e=f ed  | c2 d6 z2 d4 d2  | \
w:  ağ *  la *  mam  *  am  |  ma   *  Be li   | 
d2 e2 d2 ^c2 d2 e2 d3z  | 
w:  be *  *  li  be *  li   | 
d3^c d2 ^e2 f6 z2  | d4 d3e f2 ed g3f  | \
w:  yel  le  lel  *  li    |  Câ nım  ye  lel  *  *  lel   | 
f3e e3d f2 ed d3z  | 
w:  lel  *  lel  *  lel  *  *  li   | 
A4 A2 dc cB BA AG GF  | F2 EF E2 F2 AG FE D3z  | 
w:  yâ  lâ  *  *  ye  *  le  *  lâ   |  *  li    | 
c2 d2 c2 B2 c2 d6  | z2 cd c2 d2 e2 d2 c2 d2  | \
w:  Yâr  *  *  *  yâr   |  dost  *  *  *  dost   | 
c2 B2 c2 g2 f2 fe d2 e=f  | 
w:  *  *  be li  şâh_ *  *  ı   | 
e3/2d/ ^cd cd ed d6 z2  | d8 d2 e4 ed  | \
w:  men    |  Tâ   | 
d6 z2 e2 {f}ed dc {d}cB  | 
w:  kim  tâ  *  *  kim   | 
c4 g4 f3d e2 {f}ed  | e3/2d/ ^cd cd ed d8  | \
w:  hat tın  ey   |  mâ   | 
z2 d4 e2 f2 {g}fe f2 g2  | 
w:  mâh_ *  *  *  *  *  ı  ce  | 
f3e f2 ga ag fe d2 cB  | c3B g2 gf zf2d e=f ed  | 
w:  bî *  *  *  *  nim    |  Ah  *  yü ze  *  çık  | 
e3/2d/ ^cd cd ed d8  | z2 e2 d2 e=f e2 fg e2 d2  | \
w:  tı   |  hey   | 
d3c d2 e=f e3/2d/ cd/e/ dc {d}cB  | 
w:  ca *  *  *  *  nım   | 
c3B d2 d{e}c zc2B B/A/B/c/ BA  | A8 z2 A4 A2  | \
w:  ah  *  yü ze  *  *  çık   |  ah   Be li   | 
B2 {d}c2 B2 A2 B2 c2 B2 z2  | 
w:  be *  *  *  li  be *  li   | 
d3B d4 d6 z2  | d4 d3e f2 ed g3f  | f3e e3d f2 ed d3z  | 
w:  yel  le  lel  li   |  câ nım  ye  lel  *  *  lel   |  lel  *  lel  *  lel    | 
A4 A2 {e}dc cB BA AG GF  | F2 EF E2 F2 AG FE D3z  | 
w:  Yâ  lâ  *  *  *  ye  *  le  *  lâ   |  *  li   | 
c2 {e}d2 c2 B2 c2 d6  | z2 cd c2 d2 e2 d2 c2 B2  | \
w:  yâr  *  *  *  *  yâr   |  dost  *  *  *  dost   | 
A2 {B}AG F2 G2 F2 {G}FE E4  | 
w:  *  *  *  *  be li  şah_ *  *  *  ı   | 
D2 E6 |
w:  men    | 


